packages/ndla-icons/svg/action/TrashCanOutline.svg

<svg xmlns="http://www.w3.org/2000/svg" data-license="Apache License 2.0" data-source="Material Design" viewBox="0 0 24 24">
  <path fill="currentColor" d="M9 3v1H4v2h1v13a2 2 0 0 0 2 2h10a2 2 0 0 0 2-2V6h1V4h-5V3H9M7 6h10v13H7V6m2 2v9h2V8H9m4 0v9h2V8h-2Z"/>
</svg>

<svg xmlns="http://www.w3.org/2000/svg" data-license="Apache License 2.0" data-source="Material Design" height="24" viewBox="0 0 24 24" width="24">
    <path fill="currentColor" d="M9,3V4H4V6H5V19A2,2 0 0,0 7,21H17A2,2 0 0,0 19,19V6H20V4H15V3H9M7,6H17V19H7V6M9,8V17H11V8H9M13,8V17H15V8H13Z" />
</svg>
